icons/1_Primary/1040.com.svg

<svg xmlns="http://www.w3.org/2000/svg" width="1024" height="1024" fill="none">
   <g clip-path="url(#a)">
      <path fill="#728DBE" d="M512 1024c282.77 0 512-229.23 512-512S794.77 0 512 0 0 229.23 0 512s229.23 512 512 512Z"/>
      <path fill="#fff" d="M369.077 590.466 668.89 290.65l143.111 143.111-299.814 299.815-143.11-143.11ZM212.005 433.54l143.11-143.11 143.112 143.11-143.111 143.112L212.005 433.54Z"/>
   </g>
   <defs>
      <clipPath id="a">
         <path fill="#fff" d="M0 0h1024v1024H0z"/>
      </clipPath>
   </defs>
</svg>

<svg width="1024" height="1024" viewBox="0 0 1024 1024" fill="none" xmlns="http://www.w3.org/2000/svg">
<g clip-path="url(#clip0_2_1425)">
<path d="M512 1024C794.77 1024 1024 794.77 1024 512C1024 229.23 794.77 0 512 0C229.23 0 0 229.23 0 512C0 794.77 229.23 1024 512 1024Z" fill="#728DBE"/>
<path d="M369.077 590.466L668.89 290.65L812.001 433.761L512.187 733.576L369.077 590.466ZM212.005 433.54L355.115 290.43L498.227 433.54L355.116 576.652L212.005 433.54Z" fill="white"/>
</g>
<defs>
<clipPath id="clip0_2_1425">
<rect width="1024" height="1024" fill="white"/>
</clipPath>
</defs>
</svg>
